images/managed-team-2.svg

<?xml version="1.0"?>
<svg xmlns="http://www.w3.org/2000/svg" xmlns:xlink="http://www.w3.org/1999/xlink" width="594px" height="335px" viewBox="0 0 594 335" version="1.1">
    <!-- Generator: Sketch 56.3 (81716) - https://sketch.com -->
    <title>images/managed-team-2</title>
    <desc>Created with Sketch.</desc>
    <g id="05---Managed-Team-2" stroke="none" stroke-width="1" fill="none" fill-rule="evenodd">
        <path id="Line-6" d="M391.606058,238.888563 C415.668156,236.146144 437.914992,232.349222 451.366341,227.559571 C451.522895,227.503826 451.679735,227.447385 451.83686,227.390248 C459.337011,224.66292 467.331181,220.423203 475.525615,215.081883 C480.790209,211.6503 485.819628,207.972811 490.440607,204.295439 C492.05772,203.008542 493.508052,201.813768 494.770004,200.741861 C495.211331,200.366996 495.597479,200.034364 495.92575,199.747808 C496.122169,199.576349 496.255322,199.458645 496.322512,199.398537 L496.695158,199.065168 L497.361896,199.81046 L496.98925,200.143829 C496.919074,200.206608 496.782884,200.326998 496.583369,200.501159 C496.25175,200.790637 495.862194,201.126205 495.417388,201.504024 C494.147533,202.582645 492.689002,203.784173 491.063296,205.077909 C486.419076,208.773775 481.364687,212.469523 476.071676,215.919629 C467.81827,221.299387 459.759585,225.573321 452.178603,228.330042 C452.019385,228.387939 451.860444,228.445137 451.701783,228.501632 C438.152214,233.326256 415.852679,237.13194 391.710766,239.883103 L392.130063,243.8657 L382.708365,240.332768 L391.18773,234.915169 L391.606058,238.888563 Z" fill="#8F8981" fill-rule="nonzero"/>
        <g id="brown" transform="translate(6.000000, 129.000000)">
            <rect id="Rectangle-1" fill="#EFEFE7" fill-rule="evenodd" x="0" y="0" width="89" height="33" rx="16.5"/>
            <text stroke="none" font-family="Source Code Pro" font-size="12px" font-weight="900" fill="#979797" fill-opacity="1" text-anchor="middle" id="C6">
                <tspan fill="#808080" x="44.5" y="21" fill-opacity="1">4b078</tspan>
            </text>
        </g>
        <path id="Line-4" d="M104,145 L149,145 L149,146 L104,146 L104,150 L95,145.5 L104,141 L104,145 Z" fill="#8F8981" fill-rule="nonzero"/>
        <g id="brown" transform="translate(125.000000, 129.000000)">
            <rect id="Rectangle-1" fill="#EFEFE7" fill-rule="evenodd" x="0" y="0" width="89" height="33" rx="16.5"/>
            <text stroke="none" font-family="Source Code Pro" font-size="12px" font-weight="900" fill="#979797" fill-opacity="1" text-anchor="middle" id="C6">
                <tspan fill="#808080" x="44.5" y="21" fill-opacity="1">1edee</tspan>
            </text>
        </g>
        <g id="Line-+-brown-2" transform="translate(214.000000, 129.000000)">
            <path id="Line" d="M9,16 L54,16 L54,17 L9,17 L9,21 L0,16.5 L9,12 L9,16 Z" fill="#8F8981" fill-rule="nonzero"/>
            <g id="jessica" transform="translate(30.000000, 0.000000)">
                <rect id="Rectangle-1" fill="#B8E986" fill-rule="evenodd" x="0" y="0" width="89" height="33" rx="16.5"/>
                <text stroke="none" font-family="Source Code Pro" font-size="12px" font-weight="900" fill="#979797" fill-opacity="1" text-anchor="middle" id="C3'">
                    <tspan fill="#808080" x="44.5" y="21" fill-opacity="1">33009</tspan>
                </text>
            </g>
        </g>
        <g id="Line-+-brown-3" transform="translate(333.000000, 129.000000)">
            <path id="Line" d="M9,16 L54,16 L54,17 L9,17 L9,21 L0,16.5 L9,12 L9,16 Z" fill="#8F8981" fill-rule="nonzero"/>
            <g id="john" transform="translate(30.000000, 0.000000)">
                <rect id="Rectangle-1" fill="#FCC161" fill-rule="evenodd" x="0" y="0" width="89" height="33" rx="16.5"/>
                <text stroke="none" font-family="Source Code Pro" font-size="12px" font-weight="900" fill="#979797" fill-opacity="1" text-anchor="middle" id="C3'">
                    <tspan fill="#808080" x="44.5" y="21" fill-opacity="1">aad88</tspan>
                </text>
            </g>
        </g>
        <g id="Line-+-brown-4" transform="translate(452.000000, 129.000000)">
            <path id="Line" d="M9,16 L54,16 L54,17 L9,17 L9,21 L0,16.5 L9,12 L9,16 Z" fill="#8F8981" fill-rule="nonzero"/>
            <g id="jessica" transform="translate(30.000000, 0.000000)">
                <rect id="Rectangle-1" fill="#B8E986" fill-rule="evenodd" x="0" y="0" width="89" height="33" rx="16.5"/>
                <text stroke="none" font-family="Source Code Pro" font-size="12px" font-weight="900" fill="#979797" fill-opacity="1" text-anchor="middle" id="C3'">
                    <tspan fill="#808080" x="44.5" y="21" fill-opacity="1">774b3</tspan>
                </text>
            </g>
        </g>
        <g id="Line-5-+-brown-5" transform="translate(333.000000, 177.000000)">
            <path id="Line-5" d="M9,16 L54,16 L54,17 L9,17 L9,21 L0,16.5 L9,12 L9,16 Z" fill="#8F8981" fill-rule="nonzero"/>
            <g id="jessica" transform="translate(30.000000, 0.000000)">
                <rect id="Rectangle-1" fill="#B8E986" fill-rule="evenodd" x="0" y="0" width="89" height="33" rx="16.5"/>
                <text stroke="none" font-family="Source Code Pro" font-size="12px" font-weight="900" fill="#979797" fill-opacity="1" text-anchor="middle" id="C3'">
                    <tspan fill="#808080" x="44.5" y="21" fill-opacity="1">85127</tspan>
                </text>
            </g>
        </g>
        <path id="Line-5" d="M461,193 L506,193 L506,194 L461,194 L461,198 L452,193.5 L461,189 L461,193 Z" fill="#8F8981" fill-rule="nonzero"/>
        <g id="jessica" transform="translate(482.000000, 177.000000)">
            <rect id="Rectangle-1" fill="#B8E986" fill-rule="evenodd" x="0" y="0" width="89" height="33" rx="16.5"/>
            <text stroke="none" font-family="Source Code Pro" font-size="12px" font-weight="900" fill="#979797" fill-opacity="1" text-anchor="middle" id="C3'">
                <tspan fill="#808080" x="44.5" y="21" fill-opacity="1">cd685</tspan>
            </text>
        </g>
        <path id="Line-5" d="M177.794081,170.488513 C186.694547,200.132019 197.332039,224.755255 208.081116,232.449762 C214.899009,237.33021 233.122471,240.302172 259.121603,241.682426 C275.452126,242.549388 292.754372,242.700119 308.297292,242.438645 C309.714392,242.414806 310.974738,242.389265 312.063048,242.363728 C312.443836,242.354793 312.775887,242.346498 313.057291,242.339055 C313.225961,242.334594 313.340385,242.331405 313.397994,242.329721 L313.89778,242.315109 L313.927004,243.314682 L313.427218,243.329294 C313.368248,243.331018 313.253337,243.33422 313.08373,243.338705 C312.801341,243.346174 312.468297,243.354494 312.086507,243.363453 C310.996022,243.389041 309.733467,243.414626 308.314112,243.438503 C292.749888,243.700335 275.426162,243.549418 259.068589,242.68102 C232.846804,241.288945 214.540668,238.303501 207.499047,233.262901 C201.274287,228.807034 194.978754,218.601809 188.742879,204.110613 C184.28688,193.75557 180.257053,182.163453 176.832489,170.763174 L172.979914,171.863592 L174.835035,161.973773 L181.633818,169.391761 L177.794081,170.488513 Z" fill="#8F8981" fill-rule="nonzero"/>
        <g id="josie" transform="translate(294.000000, 225.000000)">
            <rect id="Rectangle-1" fill="#DEB9FF" fill-rule="evenodd" x="0" y="0" width="89" height="33" rx="16.5"/>
            <text stroke="none" font-family="Source Code Pro" font-size="12px" font-weight="900" fill="#979797" fill-opacity="1" text-anchor="middle" id="C3'">
                <tspan fill="#808080" x="44.5" y="21" fill-opacity="1">fba9a</tspan>
            </text>
        </g>
        <path id="Line-3" d="M216.934939,160.649902 L268.190439,193.347377 L267.652623,194.190439 L216.397123,161.492965 L214.24586,164.865214 L209.078469,156.231092 L219.086201,157.277652 L216.934939,160.649902 Z" fill="#8F8981" fill-rule="nonzero"/>
        <g id="jessica" transform="translate(244.000000, 177.000000)">
            <rect id="Rectangle-1" fill="#B8E986" fill-rule="evenodd" x="0" y="0" width="89" height="33" rx="16.5"/>
            <text stroke="none" font-family="Source Code Pro" font-size="12px" font-weight="900" fill="#979797" fill-opacity="1" text-anchor="middle" id="C3'">
                <tspan fill="#808080" x="44.5" y="21" fill-opacity="1">e5b0f</tspan>
            </text>
        </g>
        <g id="Line-2-+-ref-4-+-ref-(2-line)-2" transform="translate(471.000000, 254.000000)">
            <g id="Line-2-+-ref-4" transform="translate(57.500000, 25.000000) scale(1, -1) translate(-57.500000, -25.000000) translate(56.000000, 0.000000)" fill="#8F8981" fill-rule="nonzero">
                <path id="Line-2" d="M1,41.0192308 L1,-0.0192307692 L2,-0.0192307692 L2,41.0192308 L6,41.0192308 L1.5,50.0192308 L-3,41.0192308 L1,41.0192308 Z"/>
            </g>
            <g id="ref-(2-line)" transform="translate(0.000000, 31.000000)">
                <rect id="Rectangle-2" fill="#F44D27" fill-rule="evenodd" x="0" y="0" width="110.580108" height="38"/>
                <text stroke="none" font-family="Source Code Pro" font-size="12px" font-weight="900" fill="#979797" fill-opacity="1" text-anchor="middle" id="master">
                    <tspan fill="#f0f0f0" x="55.290054" y="15.53125" fill-opacity="1">origin/</tspan>
                    <tspan fill="#f0f0f0" x="55.290054" y="28.53125" fill-opacity="1">featureBee</tspan>
                </text>
            </g>
        </g>
        <g id="Line-2-+-ref" transform="translate(469.000000, 210.000000)">
            <path id="Line-2" d="M58,9 L58,32 L57,32 L57,9 L53,9 L57.5,0 L62,9 L58,9 Z" fill="#8F8981" fill-rule="nonzero"/>
            <g id="ref" transform="translate(0.000000, 22.000000)">
                <rect id="Rectangle-2" fill="#F44D27" x="0" y="0" width="116" height="38"/>
                <text stroke="none" font-family="Source Code Pro" font-size="12px" font-weight="900" fill="#979797" fill-opacity="1" text-anchor="middle" id="master">
                    <tspan fill="#f0f0f0" x="58" y="21.5151515" fill-opacity="1">featureB</tspan>
                </text>
            </g>
        </g>
        <g id="Line-2-+-ref-2" transform="translate(111.000000, 68.000000)">
            <path id="Line-2" d="M57,52 L57,9 L58,9 L58,52 L62,52 L57.5,61 L53,52 L57,52 Z" fill="#8F8981" fill-rule="nonzero"/>
            <g id="ref">
                <rect id="Rectangle-2" fill="#F44D27" x="0" y="0" width="116" height="38"/>
                <text stroke="none" font-family="Source Code Pro" font-size="12px" font-weight="900" fill="#979797" fill-opacity="1" text-anchor="middle" id="master">
                    <tspan fill="#f0f0f0" x="58" y="21.5151515" fill-opacity="1">master</tspan>
                </text>
            </g>
        </g>
        <g id="Line-2-+-ref-4-+-ref-(2-line)" transform="translate(470.000000, 10.000000)">
            <g id="Line-2-+-ref-4" transform="translate(55.000000, 19.000000)" fill="#8F8981" fill-rule="nonzero">
                <path id="Line-2" d="M1,43 L1,-2.22044605e-16 L2,-2.22044605e-16 L2,43 L6,43 L1.5,52 L-3,43 L1,43 Z"/>
            </g>
            <g id="ref-(2-line)">
                <rect id="Rectangle-2" fill="#F44D27" fill-rule="evenodd" x="0" y="0" width="110.580108" height="38"/>
                <text stroke="none" font-family="Source Code Pro" font-size="12px" font-weight="900" fill="#979797" fill-opacity="1" text-anchor="middle" id="master">
                    <tspan fill="#f0f0f0" x="55.290054" y="15.53125" fill-opacity="1">origin/</tspan>
                    <tspan fill="#f0f0f0" x="55.290054" y="28.53125" fill-opacity="1">featureA</tspan>
                </text>
            </g>
        </g>
        <g id="Line-2-+-ref-3" transform="translate(469.000000, 68.000000)">
            <path id="Line-2" d="M57,52 L57,9 L58,9 L58,52 L62,52 L57.5,61 L53,52 L57,52 Z" fill="#8F8981" fill-rule="nonzero"/>
            <g id="ref">
                <rect id="Rectangle-2" fill="#F44D27" x="0" y="0" width="116" height="38"/>
                <text stroke="none" font-family="Source Code Pro" font-size="12px" font-weight="900" fill="#979797" fill-opacity="1" text-anchor="middle" id="master">
                    <tspan fill="#f0f0f0" x="58" y="21.5151515" fill-opacity="1">featureA</tspan>
                </text>
            </g>
        </g>
    </g>
</svg>

<?xml version="1.0" encoding="UTF-8"?>
<svg id="svg41004" version="1.1" viewBox="0 0 577.1 321" xmlns="http://www.w3.org/2000/svg" xmlns:cc="http://creativecommons.org/ns#" xmlns:dc="http://purl.org/dc/elements/1.1/" xmlns:rdf="http://www.w3.org/1999/02/22-rdf-syntax-ns#">
 <metadata id="metadata41010">
  <rdf:RDF>
   <cc:Work rdf:about="">
    <dc:format>image/svg+xml</dc:format>
    <dc:type rdf:resource="http://purl.org/dc/dcmitype/StillImage"/>
    <dc:title>images/managed-team-2</dc:title>
   </cc:Work>
  </rdf:RDF>
 </metadata>
 <!-- Generator: Sketch 56.3 (81716) - https://sketch.com -->
 <title id="title40860">images/managed-team-2</title>
 <desc id="desc40862">Created with Sketch.</desc>
 <g id="05---Managed-Team-2" transform="translate(-2,-6)" style="fill-rule:evenodd;fill:none">
  <path id="Line-6" d="m391.61 238.89c24.062-2.7424 46.309-6.5393 59.76-11.329.15655-.0557.31339-.11219.47052-.16932 7.5002-2.7273 15.494-6.967 23.689-12.308 5.2646-3.4316 10.294-7.1091 14.915-10.786 1.6171-1.2869 3.0674-2.4817 4.3294-3.5536.44133-.37486.82748-.7075 1.1558-.99405.19642-.17146.32957-.28917.39676-.34927l.37265-.33337.66674.74529-.37265.33337c-.0702.0628-.20637.18317-.40588.35733-.33162.28948-.72118.62504-1.166 1.0029-1.2699 1.0786-2.7284 2.2802-4.3541 3.5739-4.6442 3.6959-9.6986 7.3916-14.992 10.842-8.2534 5.3798-16.312 9.6537-23.893 12.41-.15922.0579-.31816.1151-.47682.17159-13.55 4.8246-35.849 8.6303-59.991 11.381l.41929 3.9826-9.4217-3.5329 8.4794-5.4176z" style="fill-rule:nonzero;fill:#8f8981"/>
  <g id="brown" transform="translate(6,129)">
   <rect id="Rectangle-1" width="89" height="33" rx="16.5" ry="16.5" style="fill-rule:evenodd;fill:#efefe7"/>
   <text id="C6" font-size="12px" font-weight="700" style="fill:#979797;font-family:'Source Code Pro';font-size:12px;font-weight:700;text-anchor:middle"><tspan id="tspan40866" x="44.5" y="21" style="fill:gray">4b078</tspan></text>
  </g>
  <path id="Line-4" d="m104 145h45v1h-45v4l-9-4.5 9-4.5z" style="fill-rule:nonzero;fill:#8f8981"/>
  <g id="g40877" transform="translate(125,129)">
   <rect id="rect40871" width="89" height="33" rx="16.5" ry="16.5" style="fill-rule:evenodd;fill:#efefe7"/>
   <text id="text40875" font-size="12px" font-weight="700" style="fill:#979797;font-family:'Source Code Pro';font-size:12px;font-weight:700;text-anchor:middle"><tspan id="tspan40873" x="44.5" y="21" style="fill:gray">1edee</tspan></text>
  </g>
  <g id="Line-+-brown-2" transform="translate(214,129)">
   <path id="Line" d="m9 16h45v1h-45v4l-9-4.5 9-4.5z" style="fill-rule:nonzero;fill:#8f8981"/>
   <g id="jessica" transform="translate(30)">
    <rect id="rect40880" width="89" height="33" rx="16.5" ry="16.5" style="fill-rule:evenodd;fill:#b8e986"/>
    <text id="C3'" font-size="12px" font-weight="700" style="fill:#979797;font-family:'Source Code Pro';font-size:12px;font-weight:700;text-anchor:middle"><tspan id="tspan40882" x="44.5" y="21" style="fill:gray">33009</tspan></text>
   </g>
  </g>
  <g id="Line-+-brown-3" transform="translate(333,129)">
   <path id="path40887" d="m9 16h45v1h-45v4l-9-4.5 9-4.5z" style="fill-rule:nonzero;fill:#8f8981"/>
   <g id="john" transform="translate(30)">
    <rect id="rect40889" width="89" height="33" rx="16.5" ry="16.5" style="fill-rule:evenodd;fill:#fcc161"/>
    <text id="text40893" font-size="12px" font-weight="700" style="fill:#979797;font-family:'Source Code Pro';font-size:12px;font-weight:700;text-anchor:middle"><tspan id="tspan40891" x="44.5" y="21" style="fill:gray">aad88</tspan></text>
   </g>
  </g>
  <g id="Line-+-brown-4" transform="translate(452,129)">
   <path id="path40897" d="m9 16h45v1h-45v4l-9-4.5 9-4.5z" style="fill-rule:nonzero;fill:#8f8981"/>
   <g id="g40905" transform="translate(30)">
    <rect id="rect40899" width="89" height="33" rx="16.5" ry="16.5" style="fill-rule:evenodd;fill:#b8e986"/>
    <text id="text40903" font-size="12px" font-weight="700" style="fill:#979797;font-family:'Source Code Pro';font-size:12px;font-weight:700;text-anchor:middle"><tspan id="tspan40901" x="44.5" y="21" style="fill:gray">774b3</tspan></text>
   </g>
  </g>
  <g id="Line-5-+-brown-5" transform="translate(333,177)">
   <path id="Line-5" d="m9 16h45v1h-45v4l-9-4.5 9-4.5z" style="fill-rule:nonzero;fill:#8f8981"/>
   <g id="g40915" transform="translate(30)">
    <rect id="rect40909" width="89" height="33" rx="16.5" ry="16.5" style="fill-rule:evenodd;fill:#b8e986"/>
    <text id="text40913" font-size="12px" font-weight="700" style="fill:#979797;font-family:'Source Code Pro';font-size:12px;font-weight:700;text-anchor:middle"><tspan id="tspan40911" x="44.5" y="21" style="fill:gray">85127</tspan></text>
   </g>
  </g>
  <path id="path40918" d="m461 193h45v1h-45v4l-9-4.5 9-4.5z" style="fill-rule:nonzero;fill:#8f8981"/>
  <g id="g40926" transform="translate(482,177)">
   <rect id="rect40920" width="89" height="33" rx="16.5" ry="16.5" style="fill-rule:evenodd;fill:#b8e986"/>
   <text id="text40924" font-size="12px" font-weight="700" style="fill:#979797;font-family:'Source Code Pro';font-size:12px;font-weight:700;text-anchor:middle"><tspan id="tspan40922" x="44.5" y="21" style="fill:gray">cd685</tspan></text>
  </g>
  <path id="path40928" d="m177.79 170.49c8.9005 29.644 19.538 54.267 30.287 61.961 6.8179 4.8804 25.041 7.8524 51.04 9.2327 16.331.86696 33.633 1.0177 49.176.75621 1.4171-.0238 2.6774-.0494 3.7658-.0749.38079-.009.71284-.0172.99424-.0247.16867-.004.2831-.008.3407-.009l.49979-.0146.0292.99957-.49978.0146c-.059.002-.17388.005-.34349.009-.28239.007-.61543.0158-.99722.0248-1.0905.0256-2.353.0512-3.7724.0751-15.564.26183-32.888.11092-49.246-.75748-26.222-1.3921-44.528-4.3775-51.57-9.4181-6.2248-4.4559-12.52-14.661-18.756-29.152-4.456-10.355-8.4858-21.947-11.91-33.347l-3.8526 1.1004 1.8551-9.8898 6.7988 7.418z" style="fill-rule:nonzero;fill:#8f8981"/>
  <g id="josie" transform="translate(294,225)">
   <rect id="rect40930" width="89" height="33" rx="16.5" ry="16.5" style="fill-rule:evenodd;fill:#deb9ff"/>
   <text id="text40934" font-size="12px" font-weight="700" style="fill:#979797;font-family:'Source Code Pro';font-size:12px;font-weight:700;text-anchor:middle"><tspan id="tspan40932" x="44.5" y="21" style="fill:gray">fba9a</tspan></text>
  </g>
  <path id="Line-3" d="m216.93 160.65 51.256 32.697-.53782.84306-51.256-32.697-2.1513 3.3722-5.1674-8.6341 10.008 1.0466z" style="fill-rule:nonzero;fill:#8f8981"/>
  <g id="g40944" transform="translate(244,177)">
   <rect id="rect40938" width="89" height="33" rx="16.5" ry="16.5" style="fill-rule:evenodd;fill:#b8e986"/>
   <text id="text40942" font-size="12px" font-weight="700" style="fill:#979797;font-family:'Source Code Pro';font-size:12px;font-weight:700;text-anchor:middle"><tspan id="tspan40940" x="44.5" y="21" style="fill:gray">e5b0f</tspan></text>
  </g>
  <g id="g41061">
   <g id="g41046">
    <g id="Line-2-+-ref-4" transform="matrix(1,0,0,-1,520.6,304)" style="fill-rule:nonzero;fill:#8f8981">
     <path id="Line-2" d="m1 41.019v-41.038h1v41.038h4l-4.5 9-4.5-9z"/>
    </g>
    <path id="path40956" transform="translate(464.6,210)" d="m58 9v23h-1v-23h-4l4.5-9 4.5 9z" style="fill-rule:nonzero;fill:#8f8981"/>
   </g>
   <g id="ref-(2-line)" transform="translate(471,285)">
    <rect id="Rectangle-2" transform="matrix(.95858 0 0 1 -1.9 0)" width="110.58" height="38" style="fill-rule:evenodd;fill:#f44d27"/>
    <text id="master" transform="translate(-2.4664 1.4268)" font-size="12px" font-weight="700" style="fill:#979797;font-family:'Source Code Pro';font-size:12px;font-weight:700;text-anchor:middle"><tspan id="tspan40949" x="55.290054" y="15.53125" style="fill:#f0f0f0">origin/</tspan> <tspan id="tspan40951" x="55.290054" y="28.53125" style="fill:#f0f0f0">featureBee</tspan></text>
   </g>
   <g id="ref" transform="translate(469,232)">
    <rect id="rect40958" transform="scale(.91379 1)" width="116" height="38" style="fill:#f44d27"/>
    <text id="text40962" transform="translate(-5.2663 1.6908)" font-size="12px" font-weight="700" style="fill:#979797;font-family:'Source Code Pro';font-size:12px;font-weight:700;text-anchor:middle"><tspan id="tspan40960" x="58" y="21.515152" style="fill:#f0f0f0">featureB</tspan></text>
   </g>
  </g>
  <g id="Line-2-+-ref-2" transform="translate(111,68)">
   <path id="path40966" d="m57 52v-43h1v43h4l-4.5 9-4.5-9z" style="fill-rule:nonzero;fill:#8f8981"/>
   <g id="g40974">
    <rect id="rect40968" width="116" height="38" style="fill:#f44d27"/>
    <text id="text40972" font-size="12px" font-weight="700" style="fill:#979797;font-family:'Source Code Pro';font-size:12px;font-weight:700;text-anchor:middle"><tspan id="tspan40970" x="58" y="21.515152" style="fill:#f0f0f0">master</tspan></text>
   </g>
  </g>
  <g id="g41076">
   <g id="g41029" transform="translate(-4.5)">
    <g id="g40979" transform="translate(525,29)" style="fill-rule:nonzero;fill:#8f8981">
     <path id="path40977" d="m1 43v-43h1v43h4l-4.5 9-4.5-9z"/>
    </g>
    <path id="path40992" transform="translate(469,68)" d="m57 52v-43h1v43h4l-4.5 9-4.5-9z" style="fill-rule:nonzero;fill:#8f8981"/>
   </g>
   <g id="g40989" transform="translate(469,10)">
    <rect id="rect40981" transform="scale(.95858 1)" width="110.58" height="38" style="fill-rule:evenodd;fill:#f44d27"/>
    <text id="text40987" transform="translate(-2.7304 1.4268)" font-size="12px" font-weight="700" style="fill:#979797;font-family:'Source Code Pro';font-size:12px;font-weight:700;text-anchor:middle"><tspan id="tspan40983" x="55.290054" y="15.53125" style="fill:#f0f0f0">origin/</tspan> <tspan id="tspan40985" x="55.290054" y="28.53125" style="fill:#f0f0f0">featureA</tspan></text>
   </g>
   <g id="g41000" transform="translate(469,68)">
    <rect id="rect40994" transform="scale(.91379 1)" width="116" height="38" style="fill:#f44d27"/>
    <text id="text40998" transform="translate(-5.4403 1.6908)" font-size="12px" font-weight="700" style="fill:#979797;font-family:'Source Code Pro';font-size:12px;font-weight:700;text-anchor:middle"><tspan id="tspan40996" x="58" y="21.515152" style="fill:#f0f0f0">featureA</tspan></text>
   </g>
  </g>
 </g>
</svg>
